;FLAVOR:Repetier
;TIME:501
;MINX:-6.277
;MINY:-4.88
;MINZ:0.3
;MAXX:6.277
;MAXY:5.478
;MAXZ:7.5
;Generated with Cura_SteamEngine 4.6.2
M82 ;absolute extrusion mode
G21
G90
M82
M107 T0
M190 S60
M109 S200 T0
G28
G92 E0
G0 E3 F200
G92 E0

G92 E0
G92 E0
G1 F1500 E-6.5
;LAYER_COUNT:73
;LAYER:0
M107
;MESH:resetButtonHolder.stl
G0 F3600 X-5.077 Y3.68 Z0.3
;TYPE:WALL-INNER
G1 F1500 E0
G1 F1800 X-5.077 Y-3.68 E0.36719
G1 X5.077 Y-3.68 E0.87378
G1 X5.077 Y3.68 E1.24097
G1 X-5.077 Y3.68 E1.74755
G0 F3600 X-5.477 Y4.08
G1 F1800 X-5.477 Y-4.08 E2.15466
G1 X5.477 Y-4.08 E2.70116
G1 X5.477 Y4.08 E3.10826
G1 X-5.477 Y4.08 E3.65476
G0 F3600 X-5.877 Y4.48
G1 F1800 X-5.877 Y-4.48 E4.10177
G1 X5.877 Y-4.48 E4.68818
G1 X5.877 Y4.48 E5.1352
G1 X-5.877 Y4.48 E5.72161
G0 F3600 X-6.277 Y4.88
;TYPE:WALL-OUTER
G1 F1800 X-6.277 Y-4.88 E6.20854
G1 X6.277 Y-4.88 E6.83486
G1 X6.277 Y4.88 E7.32179
G1 X-6.277 Y4.88 E7.94811
G0 F3600 X-6.277 Y4.68
G0 X-5.807 Y4.41
G0 X-4.687 Y3.29
;TYPE:SKIN
G1 F1800 X-4.687 Y-3.29 E8.27639
G1 X4.687 Y-3.29 E8.74406
G1 X4.687 Y3.29 E9.07233
G1 X-4.687 Y3.29 E9.54
G0 F3600 X-4.506 Y2.847
G1 F1800 X-4.243 Y3.11 E9.55856
G0 F3600 X-3.677 Y3.11
G1 F1800 X-4.506 Y2.281 E9.61705
G0 F3600 X-4.506 Y1.716
G1 F1800 X-3.111 Y3.11 E9.71544
G0 F3600 X-2.546 Y3.11
G1 F1800 X-4.506 Y1.15 E9.85373
G0 F3600 X-4.506 Y0.584
G1 F1800 X-1.98 Y3.11 E10.03195
G0 F3600 X-1.414 Y3.11
G1 F1800 X-4.506 Y0.019 E10.25007
G0 F3600 X-4.506 Y-.546
G1 F1800 X-.849 Y3.11 E10.50806
G0 F3600 X-.283 Y3.11
G1 F1800 X-4.506 Y-1.112 E10.80598
G0 F3600 X-4.506 Y-1.677
G1 F1800 X0.282 Y3.11 E11.14376
G0 F3600 X0.847 Y3.11
G1 F1800 X-4.506 Y-2.243 E11.52145
G0 F3600 X-4.506 Y-2.809
G1 F1800 X1.413 Y3.11 E11.93906
G0 F3600 X1.979 Y3.11
G1 F1800 X-4.241 Y-3.11 E12.37792
G0 F3600 X-3.676 Y-3.11
G1 F1800 X2.544 Y3.11 E12.81677
G0 F3600 X3.11 Y3.11
G1 F1800 X-3.11 Y-3.11 E13.25563
G0 F3600 X-2.544 Y-3.11
G1 F1800 X3.676 Y3.11 E13.69448
G0 F3600 X4.241 Y3.11
G1 F1800 X-1.979 Y-3.11 E14.13334
G0 F3600 X-1.413 Y-3.11
G1 F1800 X4.506 Y2.809 E14.55095
G0 F3600 X4.506 Y2.243
G1 F1800 X-.847 Y-3.11 E14.92864
G0 F3600 X-.282 Y-3.11
G1 F1800 X4.506 Y1.677 E15.26642
G0 F3600 X4.506 Y1.112
G1 F1800 X0.283 Y-3.11 E15.56434
G0 F3600 X0.849 Y-3.11
G1 F1800 X4.506 Y0.546 E15.82233
G0 F3600 X4.506 Y-0.019
G1 F1800 X1.414 Y-3.11 E16.04045
G0 F3600 X1.98 Y-3.11
G1 F1800 X4.506 Y-.584 E16.21867
G0 F3600 X4.506 Y-1.15
G1 F1800 X2.546 Y-3.11 E16.35696
G0 F3600 X3.111 Y-3.11
G1 F1800 X4.506 Y-1.716 E16.45535
G0 F3600 X4.506 Y-2.281
G1 F1800 X3.677 Y-3.11 E16.51384
G0 F3600 X4.243 Y-3.11
M104 S200
G1 F1800 X4.506 Y-2.847 E16.5324
;MESH:NONMESH
G0 F600 X4.506 Y-2.847 Z0.4
G0 F3600 X-5.077 Y3.68
;TIME_ELAPSED:14.041897
;LAYER:1
M140 S60
M106 S255
;TYPE:WALL-INNER
;MESH:resetButtonHolder.stl
G1 F2700 X-5.077 Y-3.68 E16.65479
G1 X5.077 Y-3.68 E16.82366
G1 X5.077 Y3.68 E16.94605
G1 X-5.077 Y3.68 E17.11492
G0 F5400 X-5.477 Y4.08
G1 F2700 X-5.477 Y-4.08 E17.25062
G1 X5.477 Y-4.08 E17.43278
G1 X5.477 Y4.08 E17.56848
G1 X-5.477 Y4.08 E17.75065
G0 F5400 X-5.877 Y4.48
G1 F2700 X-5.877 Y-4.48 E17.89966
G1 X5.877 Y-4.48 E18.09513
G1 X5.877 Y4.48 E18.24413
G1 X-5.877 Y4.48 E18.4396
G0 F5400 X-6.277 Y4.88
;TYPE:WALL-OUTER
G1 F1800 X-6.277 Y-4.88 E18.60191
G1 X6.277 Y-4.88 E18.81068
G1 X6.277 Y4.88 E18.97299
G1 X-6.277 Y4.88 E19.18177
G0 F5400 X-6.277 Y4.68
G0 X-5.807 Y4.41
G0 X-4.687 Y3.29
;TYPE:SKIN
G1 F1800 X-4.687 Y-3.29 E19.29119
G1 X4.687 Y-3.29 E19.44708
G1 X4.687 Y3.29 E19.55651
G1 X-4.687 Y3.29 E19.7124
G0 F5400 X-4.506 Y-2.847
G1 F1800 X-4.243 Y-3.11 E19.71858
G0 F5400 X-3.677 Y-3.11
G1 F1800 X-4.506 Y-2.281 E19.73808
G0 F5400 X-4.506 Y-1.716
G1 F1800 X-3.111 Y-3.11 E19.77088
G0 F5400 X-2.546 Y-3.11
G1 F1800 X-4.506 Y-1.15 E19.81697
G0 F5400 X-4.506 Y-.584
G1 F1800 X-1.98 Y-3.11 E19.87638
G0 F5400 X-1.414 Y-3.11
G1 F1800 X-4.506 Y-0.019 E19.94909
G0 F5400 X-4.506 Y0.546
G1 F1800 X-.849 Y-3.11 E20.03508
G0 F5400 X-.283 Y-3.11
G1 F1800 X-4.506 Y1.112 E20.13439
G0 F5400 X-4.506 Y1.677
G1 F1800 X0.282 Y-3.11 E20.24699
G0 F5400 X0.847 Y-3.11
G1 F1800 X-4.506 Y2.243 E20.37288
G0 F5400 X-4.506 Y2.809
G1 F1800 X1.413 Y-3.11 E20.51209
G0 F5400 X1.979 Y-3.11
G1 F1800 X-4.241 Y3.11 E20.65837
G0 F5400 X-3.676 Y3.11
G1 F1800 X2.544 Y-3.11 E20.80466
G0 F5400 X3.11 Y-3.11
G1 F1800 X-3.11 Y3.11 E20.95094
G0 F5400 X-2.544 Y3.11
G1 F1800 X3.676 Y-3.11 E21.09723
G0 F5400 X4.241 Y-3.11
G1 F1800 X-1.979 Y3.11 E21.24351
G0 F5400 X-1.413 Y3.11
G1 F1800 X4.506 Y-2.809 E21.38272
G0 F5400 X4.506 Y-2.243
G1 F1800 X-.847 Y3.11 E21.50861
G0 F5400 X-.282 Y3.11
G1 F1800 X4.506 Y-1.677 E21.6212
G0 F5400 X4.506 Y-1.112
G1 F1800 X0.283 Y3.11 E21.72051
G0 F5400 X0.849 Y3.11
G1 F1800 X4.506 Y-.546 E21.80651
G0 F5400 X4.506 Y0.019
G1 F1800 X1.414 Y3.11 E21.87921
G0 F5400 X1.98 Y3.11
G1 F1800 X4.506 Y0.584 E21.93862
G0 F5400 X4.506 Y1.15
G1 F1800 X2.546 Y3.11 E21.98472
G0 F5400 X3.111 Y3.11
G1 F1800 X4.506 Y1.716 E22.01751
G0 F5400 X4.506 Y2.281
G1 F1800 X3.677 Y3.11 E22.03701
G0 F5400 X4.243 Y3.11
G1 F1800 X4.506 Y2.847 E22.0432
;MESH:NONMESH
G0 F600 X4.506 Y2.847 Z0.5
G0 F5400 X-5.077 Y3.68
;TIME_ELAPSED:24.796351
;LAYER:2
;TYPE:WALL-INNER
;MESH:resetButtonHolder.stl
G1 F3600 X-5.077 Y-3.68 E22.16559
G1 X5.077 Y-3.68 E22.33446
G1 X5.077 Y3.68 E22.45685
G1 X-5.077 Y3.68 E22.62571
G0 F7200 X-5.477 Y4.08
G1 F3600 X-5.477 Y-4.08 E22.76142
G1 X5.477 Y-4.08 E22.94358
G1 X5.477 Y4.08 E23.07928
G1 X-5.477 Y4.08 E23.26145
G0 F7200 X-5.877 Y4.48
G1 F3600 X-5.877 Y-4.48 E23.41045
G1 X5.877 Y-4.48 E23.60592
G1 X5.877 Y4.48 E23.75493
G1 X-5.877 Y4.48 E23.9504
G0 F7200 X-6.277 Y4.88
;TYPE:WALL-OUTER
G1 F1800 X-6.277 Y-4.88 E24.11271
G1 X6.277 Y-4.88 E24.32148
G1 X6.277 Y4.88 E24.48379
G1 X-6.277 Y4.88 E24.69257
G0 F7200 X-6.277 Y4.68
G0 X-5.807 Y4.41
G0 X-4.687 Y3.29
;TYPE:SKIN
G1 F1800 X-4.687 Y-3.29 E24.80199
G1 X4.687 Y-3.29 E24.95788
G1 X4.687 Y3.29 E25.06731
G1 X-4.687 Y3.29 E25.2232
G0 F7200 X-4.506 Y2.847
G1 F1800 X-4.243 Y3.11 E25.22938
G0 F7200 X-3.677 Y3.11
G1 F1800 X-4.506 Y2.281 E25.24888
G0 F7200 X-4.506 Y1.716
G1 F1800 X-3.111 Y3.11 E25.28168
G0 F7200 X-2.546 Y3.11
G1 F1800 X-4.506 Y1.15 E25.32777
G0 F7200 X-4.506 Y0.584
G1 F1800 X-1.98 Y3.11 E25.38718
G0 F7200 X-1.414 Y3.11
G1 F1800 X-4.506 Y0.019 E25.45989
G0 F7200 X-4.506 Y-.546
G1 F1800 X-.849 Y3.11 E25.54588
G0 F7200 X-.283 Y3.11
G1 F1800 X-4.506 Y-1.112 E25.64519
G0 F7200 X-4.506 Y-1.677
G1 F1800 X0.282 Y3.11 E25.75778
G0 F7200 X0.847 Y3.11
G1 F1800 X-4.506 Y-2.243 E25.88368
G0 F7200 X-4.506 Y-2.809
G1 F1800 X1.413 Y3.11 E26.02288
G0 F7200 X1.979 Y3.11
G1 F1800 X-4.241 Y-3.11 E26.16917
G0 F7200 X-3.676 Y-3.11
G1 F1800 X2.544 Y3.11 E26.31545
G0 F7200 X3.11 Y3.11
G1 F1800 X-3.11 Y-3.11 E26.46174
G0 F7200 X-2.544 Y-3.11
G1 F1800 X3.676 Y3.11 E26.60802
G0 F7200 X4.241 Y3.11
G1 F1800 X-1.979 Y-3.11 E26.75431
G0 F7200 X-1.413 Y-3.11
G1 F1800 X4.506 Y2.809 E26.89352
G0 F7200 X4.506 Y2.243
G1 F1800 X-.847 Y-3.11 E27.01941
G0 F7200 X-.282 Y-3.11
G1 F1800 X4.506 Y1.677 E27.132
G0 F7200 X4.506 Y1.112
G1 F1800 X0.283 Y-3.11 E27.23131
G0 F7200 X0.849 Y-3.11
G1 F1800 X4.506 Y0.546 E27.31731
G0 F7200 X4.506 Y-0.019
G1 F1800 X1.414 Y-3.11 E27.39001
G0 F7200 X1.98 Y-3.11
G1 F1800 X4.506 Y-.584 E27.44942
G0 F7200 X4.506 Y-1.15
G1 F1800 X2.546 Y-3.11 E27.49552
G0 F7200 X3.111 Y-3.11
G1 F1800 X4.506 Y-1.716 E27.52831
G0 F7200 X4.506 Y-2.281
G1 F1800 X3.677 Y-3.11 E27.54781
G0 F7200 X4.243 Y-3.11
G1 F1800 X4.506 Y-2.847 E27.554
;MESH:NONMESH
G0 F600 X4.506 Y-2.847 Z0.6
G0 F7200 X-5.077 Y3.68
;TIME_ELAPSED:34.904407
;LAYER:3
;TYPE:WALL-INNER
;MESH:resetButtonHolder.stl
G1 F3600 X-5.077 Y-3.68 E27.67639
G1 X5.077 Y-3.68 E27.84525
G1 X5.077 Y3.68 E27.96765
G1 X-5.077 Y3.68 E28.13651
G0 F7200 X-5.477 Y4.08
G1 F3600 X-5.477 Y-4.08 E28.27222
G1 X5.477 Y-4.08 E28.45438
G1 X5.477 Y4.08 E28.59008
G1 X-5.477 Y4.08 E28.77225
G0 F7200 X-5.877 Y4.48
G1 F3600 X-5.877 Y-4.48 E28.92125
G1 X5.877 Y-4.48 E29.11672
G1 X5.877 Y4.48 E29.26573
G1 X-5.877 Y4.48 E29.4612
G0 F7200 X-6.277 Y4.88
;TYPE:WALL-OUTER
G1 F1800 X-6.277 Y-4.88 E29.62351
G1 X6.277 Y-4.88 E29.83228
G1 X6.277 Y4.88 E29.99459
G1 X-6.277 Y4.88 E30.20337
G0 F7200 X-6.277 Y4.68
G0 X-5.807 Y4.41
G0 X-4.687 Y3.29
;TYPE:SKIN
G1 F1800 X-4.687 Y-3.29 E30.31279
G1 X4.687 Y-3.29 E30.46868
G1 X4.687 Y3.29 E30.57811
G1 X-4.687 Y3.29 E30.734
G0 F7200 X-4.506 Y-2.847
G1 F1800 X-4.243 Y-3.11 E30.74018
G0 F7200 X-3.677 Y-3.11
G1 F1800 X-4.506 Y-2.281 E30.75968
G0 F7200 X-4.506 Y-1.716
G1 F1800 X-3.111 Y-3.11 E30.79248
G0 F7200 X-2.546 Y-3.11
G1 F1800 X-4.506 Y-1.15 E30.83857
G0 F7200 X-4.506 Y-.584
G1 F1800 X-1.98 Y-3.11 E30.89798
G0 F7200 X-1.414 Y-3.11
G1 F1800 X-4.506 Y-0.019 E30.97069
G0 F7200 X-4.506 Y0.546
G1 F1800 X-.849 Y-3.11 E31.05668
G0 F7200 X-.283 Y-3.11
G1 F1800 X-4.506 Y1.112 E31.15599
G0 F7200 X-4.506 Y1.677
G1 F1800 X0.282 Y-3.11 E31.26858
G0 F7200 X0.847 Y-3.11
G1 F1800 X-4.506 Y2.243 E31.39448
G0 F7200 X-4.506 Y2.809
G1 F1800 X1.413 Y-3.11 E31.53368
G0 F7200 X1.979 Y-3.11
G1 F1800 X-4.241 Y3.11 E31.67997
G0 F7200 X-3.676 Y3.11
G1 F1800 X2.544 Y-3.11 E31.82625
G0 F7200 X3.11 Y-3.11
G1 F1800 X-3.11 Y3.11 E31.97254
G0 F7200 X-2.544 Y3.11
G1 F1800 X3.676 Y-3.11 E32.11882
G0 F7200 X4.241 Y-3.11
G1 F1800 X-1.979 Y3.11 E32.26511
G0 F7200 X-1.413 Y3.11
G1 F1800 X4.506 Y-2.809 E32.40431
G0 F7200 X4.506 Y-2.243
G1 F1800 X-.847 Y3.11 E32.53021
G0 F7200 X-.282 Y3.11
G1 F1800 X4.506 Y-1.677 E32.6428
G0 F7200 X4.506 Y-1.112
G1 F1800 X0.283 Y3.11 E32.74211
G0 F7200 X0.849 Y3.11
G1 F1800 X4.506 Y-.546 E32.82811
G0 F7200 X4.506 Y0.019
G1 F1800 X1.414 Y3.11 E32.90081
G0 F7200 X1.98 Y3.11
G1 F1800 X4.506 Y0.584 E32.96022
G0 F7200 X4.506 Y1.15
G1 F1800 X2.546 Y3.11 E33.00632
G0 F7200 X3.111 Y3.11
G1 F1800 X4.506 Y1.716 E33.03911
G0 F7200 X4.506 Y2.281
G1 F1800 X3.677 Y3.11 E33.05861
G0 F7200 X4.243 Y3.11
G1 F1800 X4.506 Y2.847 E33.0648
;MESH:NONMESH
G0 F600 X4.506 Y2.847 Z0.7
G0 F7200 X5.016 Y3.68
;TIME_ELAPSED:44.974701
;LAYER:4
;TYPE:WALL-INNER
;MESH:resetButtonHolder.stl
G1 F3600 X5.016 Y-1.752 E33.15513
G1 X-5.016 Y-1.752 E33.32196
G1 X-5.016 Y3.68 E33.4123
G1 X-5.077 Y3.68 E33.41331
G1 X-5.077 Y-1.752 E33.42709
G1 X-5.077 Y-3.68 E33.45915
G1 X5.077 Y-3.68 E33.62801
G1 X5.077 Y-1.752 E33.66007
G1 X5.077 Y3.68 E33.67385
G1 X5.016 Y3.68 E33.67487
G0 F7200 X4.616 Y4.08
G1 F3600 X4.616 Y-1.352 E33.7652
G1 X-4.616 Y-1.352 E33.91873
G1 X-4.616 Y4.08 E34.00906
G1 X-5.477 Y4.08 E34.02338
G1 X-5.477 Y-4.08 E34.15908
G1 X5.477 Y-4.08 E34.34125
G1 X5.477 Y4.08 E34.47695
G1 X4.616 Y4.08 E34.49127
G0 F7200 X-3.872 Y4.38
G0 X-3.872 Y4.48
G1 F3600 X-4.215 Y4.48 E34.49697
G1 X-5.877 Y4.48 E34.52461
G1 X-5.877 Y-4.48 E34.67362
G1 X5.877 Y-4.48 E34.86909
G1 X5.877 Y4.48 E35.01809
G1 X4.216 Y4.48 E35.04571
G1 X-3.872 Y4.48 E35.18022
G0 F7200 X-3.872 Y4.38
G0 X4.286 Y4.48
G0 X4.216 Y4.41
G1 F3600 X4.216 Y-.952 E35.26939
G1 X-4.216 Y-.952 E35.40961
G1 X-4.216 Y3.98 E35.49163
G1 X-4.086 Y4.142 E35.49509
G1 X-3.872 Y4.41 E35.49867
G1 X4.216 Y4.41 E35.5222
G0 F7200 X4.286 Y4.48
G0 X-5.807 Y4.41
G0 X-6.277 Y4.88
;TYPE:WALL-OUTER
G1 F1800 X-6.277 Y-4.88 E35.68451
G1 X6.277 Y-4.88 E35.89329
G1 X6.277 Y4.88 E36.0556
G1 X-6.277 Y4.88 E36.26437
G0 F7200 X-6.277 Y4.68
G0 X-5.807 Y4.41
G0 X4.244 Y4.438
G0 X3.816 Y4.01
G1 F1800 X3.816 Y-.552 E36.34024
G1 X-3.816 Y-.552 E36.46716
G1 X-3.816 Y3.84 E36.5402
G1 X-3.68 Y4.01 E36.54382
G1 X3.816 Y4.01 E36.66848
G0 F7200 X3.816 Y3.81
G0 X4.316 Y3.81
G0 X4.687 Y-2.142
;TYPE:SKIN
G1 F1800 X-4.687 Y-2.142 E36.82437
G1 X-4.687 Y-3.29 E36.84346
G1 X4.687 Y-3.29 E36.99935
G1 X4.687 Y-2.142 E37.01844
G0 F7200 X4.506 Y-2.847
G1 F1800 X4.243 Y-3.11 E37.02462
G0 F7200 X3.677 Y-3.11
G1 F1800 X4.466 Y-2.321 E37.04318
G0 F7200 X3.901 Y-2.321
G1 F1800 X3.111 Y-3.11 E37.06175
G0 F7200 X2.546 Y-3.11
G1 F1800 X3.335 Y-2.321 E37.0803
G0 F7200 X2.769 Y-2.321
G1 F1800 X1.98 Y-3.11 E37.09886
G0 F7200 X1.414 Y-3.11
G1 F1800 X2.204 Y-2.321 E37.11743
G0 F7200 X1.638 Y-2.321
G1 F1800 X0.849 Y-3.11 E37.13598
G0 F7200 X0.283 Y-3.11
G1 F1800 X1.072 Y-2.321 E37.15454
G0 F7200 X0.506 Y-2.321
G1 F1800 X-.282 Y-3.11 E37.17309
G0 F7200 X-.847 Y-3.11
G1 F1800 X-0.058 Y-2.321 E37.19164
G0 F7200 X-.624 Y-2.321
G1 F1800 X-1.413 Y-3.11 E37.2102
G0 F7200 X-1.979 Y-3.11
G1 F1800 X-1.19 Y-2.321 E37.22875
G0 F7200 X-1.755 Y-2.321
G1 F1800 X-2.544 Y-3.11 E37.24731
G0 F7200 X-3.11 Y-3.11
G1 F1800 X-2.321 Y-2.321 E37.26587
G0 F7200 X-2.887 Y-2.321
G1 F1800 X-3.676 Y-3.11 E37.28442
G0 F7200 X-4.241 Y-3.11
G1 F1800 X-3.452 Y-2.321 E37.30298
G0 F7200 X-4.018 Y-2.321
G1 F1800 X-4.506 Y-2.809 E37.31445
;MESH:NONMESH
G0 F600 X-4.506 Y-2.809 Z0.8
G0 F7200 X4.244 Y-.98
G0 X5.016 Y3.68
;TIME_ELAPSED:52.695894
;LAYER:5
;TYPE:WALL-INNER
;MESH:resetButtonHolder.stl
G1 F3600 X5.016 Y-1.752 E37.40479
G1 X-5.016 Y-1.752 E37.57162
G1 X-5.016 Y3.68 E37.66196
G1 X-5.077 Y3.68 E37.66297
G1 X-5.077 Y-1.752 E37.67675
G1 X-5.077 Y-3.68 E37.70881
G1 X5.077 Y-3.68 E37.87767
G1 X5.077 Y-1.752 E37.90973
G1 X5.077 Y3.68 E37.92351
G1 X5.016 Y3.68 E37.92452
G0 F7200 X4.616 Y4.08
G1 F3600 X4.616 Y-1.352 E38.01486
G1 X-4.616 Y-1.352 E38.16839
G1 X-4.616 Y4.08 E38.25872
G1 X-5.477 Y4.08 E38.27304
G1 X-5.477 Y-4.08 E38.40874
G1 X5.477 Y-4.08 E38.59091
G1 X5.477 Y4.08 E38.72661
G1 X4.616 Y4.08 E38.74093
G0 F7200 X4.216 Y4.48
G1 F3600 X-4.216 Y4.48 E38.88115
G1 X-5.877 Y4.48 E38.90878
G1 X-5.877 Y-4.48 E39.05778
G1 X5.877 Y-4.48 E39.25325
G1 X5.877 Y4.48 E39.40226
G1 X4.216 Y4.48 E39.42988
G0 F7200 X4.216 Y4.38
G0 X-4.286 Y4.48
G0 X-4.216 Y4.41
G1 F3600 X4.216 Y4.41 E39.45442
G1 X4.216 Y-.952 E39.54359
G1 X-4.216 Y-.952 E39.68381
G1 X-4.216 Y4.41 E39.77298
G0 F7200 X-4.286 Y4.48
G0 X-5.807 Y4.41
G0 X-6.277 Y4.88
;TYPE:WALL-OUTER
G1 F1800 X-6.277 Y-4.88 E39.93529
G1 X6.277 Y-4.88 E40.14407
G1 X6.277 Y4.88 E40.30638
G1 X-6.277 Y4.88 E40.51515
G0 F7200 X-6.277 Y4.68
G0 X-5.807 Y4.41
G0 X-4.316 Y4.01
G0 X-3.816 Y4.01
G1 F1800 X3.816 Y4.01 E40.64207
G1 X3.816 Y-.552 E40.71794
G1 X-3.816 Y-.552 E40.84486
G1 X-3.816 Y4.01 E40.92072
G0 F7200 X-3.616 Y4.01
G0 X-3.616 Y4.51
G0 X-4.687 Y-2.142
;TYPE:SKIN
G1 F1800 X-4.687 Y-3.29 E40.93982
G1 X4.687 Y-3.29 E41.09571
G1 X4.687 Y-2.142 E41.1148
G1 X-4.687 Y-2.142 E41.27069
G0 F7200 X-4.506 Y-2.847
G1 F1800 X-4.243 Y-3.11 E41.27687
G0 F7200 X-3.677 Y-3.11
G1 F1800 X-4.466 Y-2.321 E41.29543
G0 F7200 X-3.901 Y-2.321
G1 F1800 X-3.111 Y-3.11 E41.314
G0 F7200 X-2.546 Y-3.11
G1 F1800 X-3.335 Y-2.321 E41.33255
G0 F7200 X-2.769 Y-2.321
G1 F1800 X-1.98 Y-3.11 E41.35111
G0 F7200 X-1.414 Y-3.11
G1 F1800 X-2.204 Y-2.321 E41.36968
G0 F7200 X-1.638 Y-2.321
G1 F1800 X-.849 Y-3.11 E41.38823
G0 F7200 X-.283 Y-3.11
G1 F1800 X-1.072 Y-2.321 E41.40679
G0 F7200 X-.506 Y-2.321
G1 F1800 X0.282 Y-3.11 E41.42533
G0 F7200 X0.847 Y-3.11
G1 F1800 X0.058 Y-2.321 E41.44389
G0 F7200 X0.624 Y-2.321
G1 F1800 X1.413 Y-3.11 E41.46244
G0 F7200 X1.979 Y-3.11
G1 F1800 X1.19 Y-2.321 E41.481
G0 F7200 X1.755 Y-2.321
G1 F1800 X2.544 Y-3.11 E41.49956
G0 F7200 X3.11 Y-3.11
G1 F1800 X2.321 Y-2.321 E41.51811
G0 F7200 X2.887 Y-2.321
G1 F1800 X3.676 Y-3.11 E41.53667
G0 F7200 X4.241 Y-3.11
G1 F1800 X3.452 Y-2.321 E41.55523
G0 F7200 X4.018 Y-2.321
G1 F1800 X4.506 Y-2.809 E41.5667
;MESH:NONMESH
G0 F600 X4.506 Y-2.809 Z0.9
G0 F7200 X5.016 Y3.68
;TIME_ELAPSED:60.103723
;LAYER:6
;TYPE:WALL-INNER
;MESH:resetButtonHolder.stl
G1 F3600 X5.016 Y-1.752 E41.65704
G1 X-5.016 Y-1.752 E41.82387
G1 X-5.016 Y3.68 E41.9142
G1 X-5.077 Y3.68 E41.91522
G1 X-5.077 Y-1.752 E41.92899
G1 X-5.077 Y-3.68 E41.96106
G1 X5.077 Y-3.68 E42.12992
G1 X5.077 Y-1.752 E42.16198
G1 X5.077 Y3.68 E42.17576
G1 X5.016 Y3.68 E42.17677
G0 F7200 X4.616 Y4.08
G1 F3600 X4.616 Y-1.352 E42.26711
G1 X-4.616 Y-1.352 E42.42064
G1 X-4.616 Y4.08 E42.51097
G1 X-5.477 Y4.08 E42.52529
G1 X-5.477 Y-4.08 E42.66099
G1 X5.477 Y-4.08 E42.84316
G1 X5.477 Y4.08 E42.97886
G1 X4.616 Y4.08 E42.99318
G0 F7200 X4.216 Y4.48
G1 F3600 X-4.216 Y4.48 E43.1334
G1 X-5.877 Y4.48 E43.16102
G1 X-5.877 Y-4.48 E43.31003
G1 X5.877 Y-4.48 E43.5055
G1 X5.877 Y4.48 E43.6545
G1 X4.216 Y4.48 E43.68213
G0 F7200 X4.216 Y4.38
G0 X-4.286 Y4.48
G0 X-4.216 Y4.41
G1 F3600 X4.216 Y4.41 E43.70667
